X:22
T:Morpeth Rant
Z:Footnote: 16 July 1996
M:4/4
L:1/8
Q:212
K:D
|:A2d2 AGFD|FABG BdcA|cef2 fdgf|edc2 e2e2|A2
W: D G A D Em A A7
d2 AGFD|FABG BdcA|cef2 fdgf|edA2 d2d2|z2:|
W: D G A D A7 D
|:A2 dfaf|dfaf gfef|g2ef gfed|cdeg fefg|f3f
W: D Em A7 D
dfaf|dfaf gfef|g2ef gfed|caag f2d2|d2z2 :|
W: D Em A7 D
